svg/u1f41a.svg

<svg viewBox="0 0 128 128" xmlns="http://www.w3.org/2000/svg">
  <path d="M8.54,12.61C6.91,15.06,7.1,24.6,7.92,28.09c0.75,3.23,3.19,9.1,3.19,9.1s-1.01,10.94,0.9,20.3 c2.1,10.33,9.53,17.85,9.53,17.85s3.99,27.04,20.62,35.88c15.66,8.32,32.95-2.61,40.55-1.56c10.05,1.39,13.69,8.67,20.97,8.67 s7.94-5.7,7.8-8.84c-0.17-3.81-1.34-7.68-1.91-10.4c-1.04-5.03,14.74-41.03-0.4-58.14c-19.93-22.53-40.16-9.1-40.16-9.1 s-2.08-8.49-9.53-11.79c-5.19-2.29-12.65-2.6-12.65-2.6s-3.8-3.86-10.23-4.85c-6.76-1.04-10.4,0.37-10.4,0.37s-3.52-1.35-9.1-1.97 C13.99,10.67,9.58,11.05,8.54,12.61z" fill="#E0E0E0"/>
  <path d="M63.13,54.9c0.69,3.12,1.39,13,6.76,17.85S87.4,86.1,94.68,90.6s6.24,2.43,6.24,2.43 s4.33-25.48-7.97-38.3S63.13,54.9,63.13,54.9z" fill="#FFCBAC"/>
  <path d="M63.48,47.1c0,0,6.93-4.33,14.9-3.47s15.9,5.6,20.8,13.86c5.55,9.36,7.11,23.05,3.12,36.05 c-0.73,2.37-2.77,0.87-2.77,0.87s3.29-23.74-7.97-34.32s-26.17-4.68-26.17-4.68L63.48,47.1z" fill="#EEA25D"/>
  <path d="M27.44,38.51c-3.7,8.22-6.06,18.51-7.41,32.85c-0.17,1.77,0.38,5.07,0.82,6.71 c0.39,1.43,4.12,12.47,4.81,11.78c1.23-1.23,0.56-16.71,3.47-30.97c3-14.72,7.3-24.93,10.89-31.63c2.47-4.61,7.41-9.76,7.41-9.76 c-0.52-0.78-2.15-1.99-3.19-2.16C43.14,15.15,35.24,21.18,27.44,38.51z" fill="#B0B0B0"/>
  <path d="M16.64,20.77c-3.45,5.09-6.76,13.33-6.76,13.98c0,0.66,0.38,2.06,0.47,2.63 c0.09,0.56-0.07,6.94,0.47,6.85c0.56-0.09,5.82-13.98,8.82-19.62c4.9-9.19,8.26-11.26,7.98-11.92c-0.07-0.17-1.41-0.28-1.88-0.47 c-0.47-0.19-2.05-0.48-2.63,0C21.99,13.17,19.56,16.47,16.64,20.77z" fill="#B0B0B0"/>
  <path d="M56.81,56.16C57.93,71.7,71.55,81.12,78.4,85.53s20.55,12.39,22.43,13.7 c1.59,1.11,4.5,4.04,5.54,2.25s-0.56-5.16-4.07-7.94c-2.3-1.82-18.55-12.43-24.37-17.87c-5.82-5.44-9.59-9.19-11.64-19.62 c-1.88-9.57,1.5-18.21,1.78-20.27c0.28-2.06,1.03-4.13,1.03-4.13s-0.09-2.63-1.6-4.88c-1.5-2.25-2.82-3.38-3.1-2.53 C64.13,25.09,55.88,43.11,56.81,56.16z" fill="#B0B0B0"/>
  <path d="M72.39,38.79c1.88,3,6.1-0.15,11.07-1.03c4.22-0.75,10.04,0.47,9.85-2.35s-5.16-5.26-11.54-4.6 C77.37,31.27,69.87,34.76,72.39,38.79z" fill="#FFFFFF"/>
  <path d="M44.61,30.16c1.74,2.79,7.32,1.97,9.85-1.03c2.1-2.49,3.31-6.08,0.75-7.98 c-2.53-1.88-6.31-1.09-9.01,1.41C43.67,24.9,43.21,27.91,44.61,30.16z" fill="#FFFFFF"/>
  <path d="M25.94,20.77c0.75,2.16,3.94,2.72,8.07,0s3.75-5.54,1.69-6.48c-2.06-0.94-5.63,0.28-7.23,1.5 C26.84,17.05,25.25,18.81,25.94,20.77z" fill="#FFFFFF"/>
  <path d="M10.07,16.46c0.66,2.25,2.53,2.16,4.97,1.5c2.44-0.66,4.13-2.82,3.66-4.32 c-0.47-1.5-2.91-1.97-4.79-1.31C12.05,12.98,9.48,14.42,10.07,16.46z" fill="#FFFFFF"/>
</svg>

<svg viewBox="0 0 128 128" xmlns="http://www.w3.org/2000/svg">
  <defs/>
  <path d="M8.54,12.61 C6.91,15.06 7.1,24.6 7.92,28.09 C8.67,31.32 11.11,37.19 11.11,37.19 C11.11,37.19 10.1,48.13 12.01,57.49 C14.11,67.82 21.54,75.34 21.54,75.34 C21.54,75.34 25.53,102.38 42.16,111.22 C57.82,119.54 75.11,108.61 82.71,109.66 C92.76,111.05 96.4,118.33 103.68,118.33 C110.96,118.33 111.62,112.63 111.48,109.49 C111.31,105.68 110.14,101.81 109.57,99.09 C108.53,94.06 124.31,58.06 109.17,40.95 C89.24,18.42 69.01,31.85 69.01,31.85 C69.01,31.85 66.93,23.36 59.48,20.06 C54.29,17.77 46.83,17.46 46.83,17.46 C46.83,17.46 43.03,13.6 36.6,12.61 C29.84,11.57 26.2,12.98 26.2,12.98 C26.2,12.98 22.68,11.63 17.1,11.01 C13.99,10.67 9.58,11.05 8.54,12.61 Z" fill="#E0E0E0"/>
  <path d="M63.13,54.9 C63.82,58.02 64.52,67.9 69.89,72.75 C75.26,77.6 87.4,86.1 94.68,90.6 C101.96,95.1 100.92,93.03 100.92,93.03 C100.92,93.03 105.25,67.55 92.95,54.73 C80.65,41.91 63.13,54.9 63.13,54.9 Z" fill="#FFCBAC"/>
  <path d="M63.48,47.1 C63.48,47.1 70.41,42.77 78.38,43.63 C86.35,44.49 94.28,49.23 99.18,57.49 C104.73,66.85 106.29,80.54 102.3,93.54 C101.57,95.91 99.53,94.41 99.53,94.41 C99.53,94.41 102.82,70.67 91.56,60.09 C80.3,49.51 65.39,55.41 65.39,55.41 L63.48,47.1 Z" fill="#EEA25D"/>
  <path d="M27.44,38.51 C23.74,46.73 21.38,57.02 20.03,71.36 C19.86,73.13 20.41,76.43 20.85,78.07 C21.24,79.5 24.97,90.54 25.66,89.85 C26.89,88.62 26.22,73.14 29.13,58.88 C32.13,44.16 36.43,33.95 40.02,27.25 C42.49,22.64 47.43,17.49 47.43,17.49 C46.91,16.71 45.28,15.5 44.24,15.33 C43.14,15.15 35.24,21.18 27.44,38.51 Z" fill="#B0B0B0"/>
  <path d="M16.64,20.77 C13.19,25.86 9.88,34.1 9.88,34.75 C9.88,35.41 10.26,36.81 10.35,37.38 C10.44,37.94 10.28,44.32 10.82,44.23 C11.38,44.14 16.64,30.25 19.64,24.61 C24.54,15.42 27.9,13.35 27.62,12.69 C27.55,12.52 26.21,12.41 25.74,12.22 C25.27,12.03 23.69,11.74 23.11,12.22 C21.99,13.17 19.56,16.47 16.64,20.77 Z" fill="#B0B0B0"/>
  <path d="M56.81,56.16 C57.93,71.7 71.55,81.12 78.4,85.53 C85.25,89.94 98.95,97.92 100.83,99.23 C102.42,100.34 105.33,103.27 106.37,101.48 C107.41,99.69 105.81,96.32 102.3,93.54 C100,91.72 83.75,81.11 77.93,75.67 C72.11,70.23 68.34,66.48 66.29,56.05 C64.41,46.48 67.79,37.84 68.07,35.78 C68.35,33.72 69.1,31.65 69.1,31.65 C69.1,31.65 69.01,29.02 67.5,26.77 C66,24.52 64.68,23.39 64.4,24.24 C64.13,25.09 55.88,43.11 56.81,56.16 Z" fill="#B0B0B0"/>
  <path d="M72.39,38.79 C74.27,41.79 78.49,38.64 83.46,37.76 C87.68,37.01 93.5,38.23 93.31,35.41 C93.12,32.59 88.15,30.15 81.77,30.81 C77.37,31.27 69.87,34.76 72.39,38.79 Z" fill="#FFFFFF"/>
  <path d="M44.61,30.16 C46.35,32.95 51.93,32.13 54.46,29.13 C56.56,26.64 57.77,23.05 55.21,21.15 C52.68,19.27 48.9,20.06 46.2,22.56 C43.67,24.9 43.21,27.91 44.61,30.16 Z" fill="#FFFFFF"/>
  <path d="M25.94,20.77 C26.69,22.93 29.88,23.49 34.01,20.77 C38.14,18.05 37.76,15.23 35.7,14.29 C33.64,13.35 30.07,14.57 28.47,15.79 C26.84,17.05 25.25,18.81 25.94,20.77 Z" fill="#FFFFFF"/>
  <path d="M10.07,16.46 C10.73,18.71 12.6,18.62 15.04,17.96 C17.48,17.3 19.17,15.14 18.7,13.64 C18.23,12.14 15.79,11.67 13.91,12.33 C12.05,12.98 9.48,14.42 10.07,16.46 Z" fill="#FFFFFF"/>
</svg>
